frontend/images/zipsea-logo.svg

<svg width="110" height="31" viewBox="0 0 110 31" fill="none" xmlns="http://www.w3.org/2000/svg">
<path d="M24.6505 29.5008C24.3755 29.4715 24.1657 29.2415 24.1617 28.965L23.9011 10.9183C23.8965 10.5988 24.1655 10.3435 24.4843 10.3647L30.2159 10.7465C30.5002 10.7655 30.7223 10.9995 30.7263 11.2844L30.9865 29.5616C30.9912 29.8897 30.7079 30.148 30.3816 30.1132L24.6505 29.5008Z" fill="white"/>
<path fill-rule="evenodd" clip-rule="evenodd" d="M34.5962 3.8452L39.5124 3.04894C39.7558 3.05031 39.9622 3.22922 39.9987 3.47075L40.1247 4.30578C40.1867 4.71683 40.7002 4.87799 41.0066 4.5982C42.3846 3.34022 43.789 2.97452 45.2197 2.98255C47.1169 2.99321 48.4948 3.7528 49.6128 5.26144C50.7309 6.75816 51.2815 8.72572 51.2649 11.6827C51.2554 13.3758 51.0456 14.8651 50.6352 16.1505C50.2249 17.424 49.7914 18.4343 49.0758 19.1815C48.3721 19.9168 47.5924 20.3373 46.7366 20.7021C45.8809 21.055 44.9609 21.2287 43.9768 21.2231C43.1004 21.2182 42.1511 21.215 41.129 20.9543C40.8097 20.8729 40.4921 21.109 40.4902 21.4395L40.4614 26.5602C40.4601 26.8046 40.2815 27.0116 40.0406 27.0481L34.5331 27.8812C34.2329 27.9267 33.9631 27.6925 33.9649 27.3879L34.0988 4.33861C34.1004 4.06456 34.3231 3.84367 34.5962 3.8452ZM42.8217 8.35708C42.1945 8.35358 41.4857 8.87297 40.6954 9.65585C40.6047 9.74567 40.5551 9.86889 40.5544 9.99671L40.5229 15.6108C40.5218 15.8153 40.6453 16.0014 40.8383 16.067C41.3571 16.2434 41.8435 16.4625 42.2975 16.4651C43.0801 16.4695 43.7045 16.0095 44.1707 15.3444C44.6488 14.6674 45.0216 13.5957 45.0298 12.1291C45.0434 9.70874 44.2209 8.36494 42.8217 8.35708Z" fill="white"/>
<path d="M30.8956 4.66949C30.8956 6.60332 29.3279 8.171 27.3941 8.171C25.4603 8.171 23.8926 6.60332 23.8926 4.66949C23.8926 2.73565 25.4603 1.16797 27.3941 1.16797C29.3279 1.16797 30.8956 2.73565 30.8956 4.66949Z" fill="white"/>
<path d="M52.4525 21.9477C52.271 21.8584 52.1837 21.6495 52.2451 21.4567L53.4878 17.556C53.5681 17.304 53.8616 17.1922 54.0906 17.3245C55.1728 17.9494 56.16 18.4555 57.4273 18.8428C58.8797 19.2692 60.1522 19.4824 61.2448 19.4824C62.5506 19.4824 63.2035 19.1226 63.2035 18.4031C63.2035 18.0566 63.017 17.7701 62.6439 17.5436C62.2841 17.3171 61.498 17.0439 60.2854 16.7241C58.8997 16.3644 57.7737 16.0113 56.9076 15.6648C56.0415 15.3184 55.282 14.8987 54.6291 14.4057C53.9895 13.8993 53.5298 13.3064 53.25 12.6268C52.9835 11.9473 52.8503 11.1211 52.8503 10.1484C52.8503 8.12309 53.5498 6.51747 54.9489 5.33157C56.3613 4.14568 58.3467 3.55273 60.905 3.55273C63.6518 3.55273 66.1475 4.03046 68.392 4.9859C68.5628 5.05859 68.6602 5.23888 68.6317 5.42228L67.9488 9.82002C67.9055 10.0989 67.6008 10.2527 67.3471 10.1292C66.3385 9.6386 65.3104 9.24526 64.2629 8.94922C63.037 8.60278 61.9444 8.42956 60.985 8.42956C59.919 8.42956 59.386 8.72936 59.386 9.32897C59.386 9.66209 59.5726 9.93524 59.9457 10.1484C60.3321 10.3616 61.1715 10.6481 62.464 11.0079C65.3022 11.7807 67.2343 12.6135 68.2602 13.5062C69.2862 14.399 69.7992 15.7581 69.7992 17.5836C69.7992 19.8088 69.0731 21.501 67.6207 22.6603C66.1683 23.8062 64.0696 24.3792 61.3248 24.3792C58.2885 24.3792 55.087 23.2432 52.4525 21.9477Z" fill="white"/>
<path d="M70.6973 10.673C70.6973 7.39518 71.6033 4.79688 73.4155 2.87813C75.241 0.959376 77.5994 0 80.4909 0C82.0365 0 83.4023 0.273157 84.5882 0.819467C85.7741 1.35245 86.7268 2.1053 87.4463 3.078C88.1659 4.05069 88.7055 5.16996 89.0653 6.43581C89.4251 7.70165 89.6049 9.10074 89.6049 10.6331C89.6049 11.3313 89.5819 11.8796 89.5358 12.2782C89.5132 12.4732 89.3437 12.6118 89.1473 12.6118H78.4351C78.1818 12.6118 77.987 12.8394 78.0488 13.085C78.5388 15.0347 80.0324 16.0096 82.5296 16.0096C84.2031 16.0096 86.1399 15.4888 88.3398 14.4473C88.6182 14.3155 88.9434 14.5167 88.9417 14.8246L88.9197 18.8867C88.9189 19.0341 88.8394 19.1702 88.7105 19.2416C86.3651 20.542 84.3979 21.0663 81.5502 21.0663C79.9246 21.0663 78.4522 20.8597 77.1331 20.4467C75.8139 20.0203 74.6747 19.3874 73.7153 18.5479C72.7559 17.7085 72.0097 16.6225 71.4768 15.29C70.9571 13.9576 70.6973 12.4186 70.6973 10.673ZM77.8226 8.45845C77.8136 8.68727 77.9994 8.87422 78.2284 8.87422H82.346C82.5779 8.87422 82.7649 8.68259 82.7515 8.45102C82.6797 7.20649 82.4458 6.24828 82.0499 5.57637C81.6102 4.83019 81.0172 4.4571 80.271 4.4571C79.5115 4.4571 78.9119 4.83685 78.4722 5.59635C78.0879 6.26892 77.8713 7.22295 77.8226 8.45845Z" fill="white"/>
<path d="M90.7539 19.3138C90.7539 17.0086 91.64 15.2498 93.4122 14.0372C95.1597 12.8284 97.9179 12.0536 101.687 11.7129C101.777 11.7048 101.847 11.6293 101.847 11.5389C101.847 10.7794 101.627 10.2197 101.187 9.85996C100.761 9.50019 100.068 9.32031 99.1085 9.32031C97.2792 9.32031 95.3238 9.73306 93.2423 10.5585C92.9927 10.6575 92.7129 10.5018 92.672 10.2365L91.9831 5.76706C91.9539 5.57732 92.0594 5.39211 92.2389 5.32407C94.7018 4.39058 97.398 3.92383 100.328 3.92383C103.352 3.92383 105.578 4.47014 107.003 5.56276C108.429 6.65538 109.142 8.52083 109.142 11.1591V24.0985C109.142 24.326 108.957 24.5104 108.73 24.5104H102.934C102.733 24.5104 102.561 24.3657 102.528 24.1678L102.302 22.8442C102.245 22.5133 101.835 22.3831 101.586 22.6082C100.85 23.2732 100.098 23.8007 99.3283 24.1906C98.3689 24.6703 97.2963 24.9102 96.1104 24.9102C94.5115 24.9102 93.219 24.4305 92.2329 23.4711C91.2469 22.5117 90.7539 21.126 90.7539 19.3138ZM97.9092 18.2145C97.9092 18.7608 98.0492 19.1872 98.329 19.4937C98.6221 19.7868 99.0019 19.9334 99.4682 19.9334C100.144 19.9334 100.897 19.6276 101.726 19.0159C101.828 18.9403 101.887 18.8196 101.887 18.6923V15.2913C101.887 15.0275 101.642 14.8311 101.387 14.8982C100.22 15.2048 99.3673 15.604 98.8286 16.0959C98.2157 16.6555 97.9092 17.3617 97.9092 18.2145Z" fill="white"/>
<path d="M0 2.93555C0 2.77442 0.0933219 2.62754 0.241973 2.56537C1.60561 1.99504 4.46613 1.1885 7.25788 1.64339C11.0586 2.26269 12.2182 3.71482 12.6906 4.07786C13.1385 4.42207 15.9795 7.33813 20.2257 5.14724C20.5127 4.99916 20.8718 5.19751 20.8718 5.52045V13.0462C20.8718 13.2197 20.7631 13.3745 20.6 13.4336L12.1978 16.4729C11.8655 16.5931 11.8255 17.0554 12.1118 17.2625C12.1852 17.3156 12.2566 17.3697 12.3255 17.4247C14.0648 18.8128 14.9667 19.6243 16.8134 19.6243C18.2839 19.6243 19.3186 19.2586 20.243 18.7754C20.5254 18.6278 20.8718 18.8255 20.8718 19.1442V23.7259C20.8718 23.8952 20.7694 24.0477 20.6093 24.1029C19.501 24.4848 17.269 24.9723 15.0741 24.5573C12.6347 24.096 10.8081 22.8417 10.1997 22.2723C9.34793 21.5676 7.25359 20.1838 5.69035 20.2863C3.86747 20.4058 3.50218 20.3023 0.584953 21.6055C0.311091 21.7278 0 21.5288 0 21.2288V13.8399C0 13.6664 0.108683 13.5115 0.271817 13.4525L11.1807 9.50641C11.2728 9.47311 11.2868 9.34778 11.2089 9.28847C10.1997 8.51969 7.51556 6.49097 5.45415 6.57639C3.6396 6.65158 2.29091 7.05767 0.617226 7.92581C0.338307 8.07048 0 7.87176 0 7.55755V2.93555Z" fill="white"/>
</svg>

<svg xmlns="http://www.w3.org/2000/svg" fill="none" viewBox="0 0 110 31"><path fill="#fff" d="M24.65 29.5a.55.55 0 0 1-.488-.535l-.26-18.047a.547.547 0 0 1 .582-.553l5.732.381a.547.547 0 0 1 .51.538l.26 18.278a.547.547 0 0 1-.604.551z"/><path fill="#fff" fill-rule="evenodd" d="m34.596 3.845 4.916-.796c.244.001.45.18.487.422l.126.835c.062.41.575.572.882.292 1.378-1.258 2.782-1.623 4.213-1.615 1.897.01 3.275.77 4.393 2.278 1.118 1.497 1.669 3.465 1.652 6.422q-.015 2.54-.63 4.468c-.41 1.273-.844 2.283-1.56 3.03-.703.736-1.483 1.156-2.338 1.521a7.1 7.1 0 0 1-2.76.521c-.877-.005-1.826-.008-2.848-.269a.51.51 0 0 0-.639.485l-.029 5.121a.496.496 0 0 1-.42.488l-5.508.833a.495.495 0 0 1-.568-.493l.134-23.05a.495.495 0 0 1 .497-.493m8.226 4.512c-.628-.003-1.336.516-2.127 1.299a.48.48 0 0 0-.14.34l-.032 5.615a.47.47 0 0 0 .315.456c.52.176 1.005.395 1.46.398.782.005 1.407-.456 1.873-1.12.478-.678.85-1.75.859-3.216.013-2.42-.81-3.764-2.208-3.772" clip-rule="evenodd"/><path fill="#fff" d="M30.896 4.67a3.502 3.502 0 1 1-7.003 0 3.502 3.502 0 0 1 7.003 0M52.453 21.948a.41.41 0 0 1-.208-.491l1.243-3.901a.415.415 0 0 1 .603-.232c1.082.625 2.069 1.131 3.336 1.519q2.179.64 3.818.64 1.959 0 1.959-1.08 0-.52-.56-.86-.54-.34-2.359-.819-2.078-.54-3.377-1.06a9.8 9.8 0 0 1-2.279-1.258q-.96-.76-1.379-1.78-.4-1.018-.4-2.478 0-3.037 2.099-4.816 2.118-1.78 5.956-1.78 4.12 0 7.487 1.434c.17.073.268.253.24.436l-.683 4.398a.42.42 0 0 1-.602.31 18.6 18.6 0 0 0-3.084-1.18q-1.84-.52-3.278-.52-1.599 0-1.599.899 0 .5.56.82.58.32 2.518.859 4.257 1.16 5.796 2.498 1.54 1.34 1.54 4.078 0 3.338-2.18 5.076-2.178 1.72-6.295 1.72c-3.037 0-6.238-1.137-8.873-2.432M70.697 10.673q0-4.917 2.718-7.795Q76.155 0 80.491 0q2.319 0 4.097.82 1.78.798 2.858 2.258 1.08 1.46 1.62 3.358t.539 4.197q0 1.048-.07 1.645a.384.384 0 0 1-.388.334H78.435c-.253 0-.448.227-.386.473q.735 2.925 4.48 2.925 2.51 0 5.81-1.563a.42.42 0 0 1 .603.378l-.022 4.062c-.001.147-.08.283-.21.355-2.345 1.3-4.312 1.824-7.16 1.824q-2.438 0-4.417-.62-1.979-.64-3.418-1.898-1.44-1.26-2.238-3.258-.78-1.998-.78-4.617m7.126-2.215a.403.403 0 0 0 .405.416h4.118a.403.403 0 0 0 .405-.423q-.107-1.867-.701-2.875-.66-1.119-1.779-1.119-1.14 0-1.799 1.14-.576 1.008-.65 2.861M90.754 19.314q0-3.457 2.658-5.277 2.622-1.813 8.275-2.324a.176.176 0 0 0 .16-.174q0-1.14-.66-1.679-.64-.54-2.078-.54-2.745 0-5.867 1.239a.42.42 0 0 1-.57-.322l-.689-4.47a.406.406 0 0 1 .256-.443q3.694-1.4 8.089-1.4 4.537 0 6.675 1.639 2.139 1.638 2.139 5.596V24.1a.41.41 0 0 1-.412.411h-5.796a.41.41 0 0 1-.406-.342l-.226-1.324c-.057-.33-.467-.46-.716-.236q-1.104.998-2.258 1.583-1.44.72-3.218.72-2.398 0-3.877-1.44-1.48-1.44-1.48-4.157m7.155-1.1q0 .82.42 1.28.44.44 1.14.44 1.013 0 2.257-.918a.4.4 0 0 0 .161-.324v-3.4a.4.4 0 0 0-.5-.394q-1.75.46-2.558 1.198-.92.84-.92 2.119M0 2.936c0-.162.093-.308.242-.37 1.364-.571 4.224-1.377 7.016-.923 3.8.62 4.96 2.072 5.433 2.435.447.344 3.288 3.26 7.535 1.07.287-.149.646.05.646.372v7.526a.41.41 0 0 1-.272.388l-8.402 3.039c-.332.12-.373.582-.086.79q.11.08.213.162c1.74 1.388 2.642 2.2 4.488 2.2 1.47 0 2.506-.366 3.43-.85.282-.147.629.05.629.37v4.58c0 .17-.103.323-.263.378-1.108.382-3.34.87-5.535.454-2.44-.461-4.266-1.715-4.874-2.285-.852-.704-2.946-2.088-4.51-1.986-1.823.12-2.188.016-5.105 1.32A.415.415 0 0 1 0 21.229v-7.39c0-.173.109-.328.272-.386L11.18 9.506c.092-.033.106-.158.028-.218-1.01-.768-3.693-2.797-5.755-2.712-1.814.076-3.163.482-4.837 1.35A.42.42 0 0 1 0 7.558z"/></svg>
